packages/kaspersky-hexa-ui-icons/src/iconsSVGs/24/Harbor.svg

<svg width="24" height="24" viewBox="0 0 24 24" fill="none" xmlns="http://www.w3.org/2000/svg">
<path fill-rule="evenodd" clip-rule="evenodd" d="M12 23C18.0751 23 23 18.0751 23 12C23 5.92487 18.0751 1 12 1C5.92487 1 1 5.92487 1 12C1 18.0751 5.92487 23 12 23ZM12 21.1667C16.3775 21.1667 20.0383 18.0982 20.949 13.9949L11.7461 10.3867L11.7512 10.3823C11.7847 10.3533 11.8138 10.3192 12.4264 9.6015L12.4276 9.6001C13.0714 8.84583 14.3585 7.33789 16.9666 4.29411C15.5355 3.36981 13.8304 2.83333 12 2.83333C6.93739 2.83333 2.83333 6.93739 2.83333 12C2.83333 15.2629 4.53816 18.1277 7.10565 19.7521L7.81307 12.3269H7.25442V11.3149H7.61003V9.23573H7.25442V8.59856L9.21598 6.71328V6.5792C9.21598 6.48254 9.29431 6.40422 9.39099 6.40422C9.48761 6.40422 9.56594 6.48254 9.56594 6.5792V6.71322L11.5276 8.59856V9.23573H11.1719V11.3149H11.5276V12.3269H10.9623L11.7687 21.1638C11.8456 21.1657 11.9227 21.1667 12 21.1667ZM19.8204 7.09958L11.7497 10.3874L21.051 10.1913C20.8295 9.07482 20.4061 8.03103 19.8204 7.09958ZM8.67794 10.4489V11.3283H9.98071V10.4489C9.98071 10.0892 9.68904 9.79756 9.32935 9.79756C8.9696 9.79756 8.67794 10.0892 8.67794 10.4489Z" fill="black"/>
</svg>

<svg xmlns="http://www.w3.org/2000/svg" width="24" height="24" fill="none" viewBox="0 0 24 24"><path fill="#000" fill-rule="evenodd" d="M12 23c6.0751 0 11-4.9249 11-11S18.0751 1 12 1 1 5.9249 1 12s4.9249 11 11 11m0-1.8333c4.3775 0 8.0383-3.0685 8.949-7.1718l-9.2029-3.6082.0051-.0044c.0335-.029.0626-.0631.6752-.7808l.0012-.0014c.6438-.7543 1.9309-2.2622 4.539-5.306C15.5355 3.3698 13.8304 2.8333 12 2.8333c-5.0626 0-9.1667 4.104-9.1667 9.1667 0 3.2629 1.7049 6.1277 4.2723 7.7521l.7075-7.4252h-.5587v-1.012H7.61V9.2357h-.3556v-.6371L9.216 6.7133v-.1341a.175.175 0 1 1 .35 0v.134l1.9616 1.8854v.6371h-.3557v2.0792h.3557v1.012h-.5653l.8064 8.8369q.1153.0029.2313.0029m7.8204-14.0671-8.0707 3.2878 9.3013-.1961a9.15 9.15 0 0 0-1.2306-3.0917M8.6779 10.4489v.8794h1.3028v-.8794a.6514.6514 0 0 0-1.3028 0" clip-rule="evenodd"/></svg>
